X:1
T:Title
%%score ( 1 2 3 ) { ( 4 6 ) | 5 }
L:1/8
M:4/4
K:F
V:1 treble nm="Bright Piano"
V:2 treble 
V:3 treble 
V:4 treble nm="Bright Piano"
V:6 treble 
V:5 bass 
V:1
 z4 z2[Q:1/4=94] FG | [FA]2 [FB]2 [Gc]2 [Fc]2 | [Fd]4 [Fc]2 [Ec]2 | [DF]2 [EG]2 [FA]2 BA | %4
[M:3/4] G2- [EG]2 F2 |[M:1/4] F z |[M:4/4] [FA]2 [FB]2 [Gc]2 [Fc]2 | [Fd]4 [Fc]2 [Ec]2 | %8
 [DF]2 [EG]2 [FA]2 BA |[M:3/4] G2- [EG]2 F2 |[M:1/4] [FA]2 |[M:4/4] z4 F2 z2 | %12
 [DF]2 [=B,D]2 C2 [Ec]2 | [Fc]2 [GB]2 [FA]2 [Fd]2 | [Ec]2 [GB]2 [FA]2 [Fd]2 | %15
 [Fc]2 [FA]2 [EG]2 [FA][FB] |[M:3/4] cA z E F2 |] %17
V:2
 z4 z2 C2 | x8 | x8 | z4 z2 F2 |[M:3/4] F2 z2 z2 |[M:1/4] C-[CG] |[M:4/4] x8 | x8 | z4 z2 F2 | %9
[M:3/4] F2 z2 z2 |[M:1/4] x2 |[M:4/4] [CA]2 [CG]2 C=B, [CE]2 | x8 | x8 | x8 | x8 | %16
[M:3/4] z2 G2 z2 |] %17
V:3
 x8 | x8 | x8 | x8 |[M:3/4] x6 |[M:1/4] x2 |[M:4/4] x8 | x8 | x8 |[M:3/4] x6 |[M:1/4] x2 | %11
[M:4/4] x8 | x8 | x8 | x8 | x8 |[M:3/4] F4 z2 |] %17
V:4
 z4 z2 A,B, | C2 D2 C[K:bass]B, A,2 | B,4 z4 | A,2[K:treble] C2 C2 B,C | %4
[M:3/4] D2 C[K:bass]B, A,2 |[M:1/4] A,B, |[M:4/4] C2 D2 CB, A,2 | B,4 z4 | %8
 A,2[K:treble] C2 C2 B,C |[M:3/4] D2 CB, A,2 |[M:1/4] C2 |[M:4/4] C2 C2[K:bass] G,2 G,2 | %12
 A,2 G,F, E,2 CB, | A,2 C2 C2 B,A, | G,2[K:treble] C2 C2 B,2 | A,2 C2 C2 C[K:bass]B, | %16
[M:3/4] A,C B,2 A,2 |] %17
V:5
 z4 z2 F,2 | F,2 D,2 E,2 F,2 | B,,2 z2 F,2 C,2 | D,2 C,2 F,_E,D,C, |[M:3/4] B,,2 C,2 F,2 | %5
[M:1/4] F,2 |[M:4/4] F,2 D,2 E,2 F,2 | B,,2 z2 F,2 C,2 | D,2 C,2 F,_E,D,C, |[M:3/4] B,,2 C,2 F,2 | %10
[M:1/4] F,2 |[M:4/4] F,2 E,2 D,2 C,2 | F,,2 G,,2 C,2 C,2 | F,2 E,2 F,2 B,,2 | C,2 E,2 F,2 B,,2 | %15
 F,2 F,2 C,2 F,D, |[M:3/4] C,4 F,2 |] %17
V:6
 x8 | x5[K:bass] x3 | z2 D,2 A,2 CB, | x2[K:treble] x6 |[M:3/4] x3[K:bass] x3 |[M:1/4] x2 | %6
[M:4/4] x8 | z2 D,2 A,2 CB, | x2[K:treble] x6 |[M:3/4] x6 |[M:1/4] x2 |[M:4/4] x4[K:bass] x4 | x8 | %13
 x8 | x2[K:treble] x6 | x7[K:bass] x |[M:3/4] x6 |] %17

